X: 29934
T: O'Sullivan's March
R: jig
M: 6/8
K: Gmajor
"G"DBA ABd|edB A2D|GBA B2G|"D"AGE GFE|
"G"DBA ABd|edB A2D|GBA B2G|1 "D"AGF G3:|2 "D"AGF Gdg||
|:"C"e3 edg|e3 edB|"G"d3 dBd|edB BAG|
"C"c3 dcd|edB A2D|"D"GBA B2G|1 AGF Gdg:|2 "D"AGF "G"G3||

